icons/volume-filled.svg

<svg width="24" height="24" viewBox="0 0 24 24" fill="none" xmlns="http://www.w3.org/2000/svg">
<path fill-rule="evenodd" clip-rule="evenodd" d="M6 16.0087L10.537 19.9427C10.954 20.0807 11.301 20.0607 11.578 19.8847C11.856 19.7087 11.997 19.4087 12 18.9837L12.004 5.30566C12.021 4.72966 11.88 4.35266 11.582 4.17566C11.284 3.99866 10.937 3.96866 10.542 4.08566L6 8.00866H4C2.67 8.01566 2.004 8.68266 2.004 10.0087C2.004 11.7737 2 13.4447 2 14.0087C2 15.3337 2.667 16.0047 4 16.0217L6 16.0087ZM17.398 19.8057C17.6088 19.966 17.8746 20.0361 18.1371 20.0007C18.3995 19.9652 18.6372 19.8271 18.798 19.6167C20.866 16.9067 22.004 15.5217 22.004 12.0347C22.004 8.54866 20.867 7.11066 18.802 4.40266C18.723 4.29656 18.6237 4.2072 18.5099 4.13975C18.3961 4.0723 18.27 4.0281 18.139 4.00971C18.008 3.99132 17.8747 3.99911 17.7467 4.03262C17.6187 4.06613 17.4986 4.12471 17.3935 4.20495C17.2883 4.28519 17.2001 4.3855 17.1339 4.50007C17.0678 4.61465 17.0251 4.7412 17.0082 4.87241C16.9913 5.00362 17.0006 5.13688 17.0356 5.26446C17.0706 5.39204 17.1306 5.51141 17.212 5.61566C19.012 7.97566 20.004 8.98366 20.004 12.0347C20.004 15.0867 19.012 16.0407 17.209 18.4047C17.1292 18.509 17.0708 18.628 17.0371 18.755C17.0034 18.8819 16.9951 19.0142 17.0127 19.1444C17.0302 19.2745 17.0733 19.4 17.1394 19.5134C17.2056 19.6269 17.2934 19.7262 17.398 19.8057ZM14.724 16.5157C15.164 16.8517 15.54 16.8417 16.126 16.3287C17.146 15.4337 18.004 13.7967 18.004 12.0367C18.004 10.2767 17.274 8.79866 16.126 7.71166C15.781 7.31166 15.166 7.21466 14.727 7.54966C14.288 7.88566 14.181 8.64466 14.538 8.95166C15.651 9.90766 16.004 11.0347 16.004 12.0367C16.004 13.0377 15.685 14.0377 14.536 15.1157C14.39 15.2527 14.331 15.5097 14.331 15.7217C14.331 16.0217 14.467 16.3207 14.724 16.5167V16.5157Z" fill="#3A3A47"/>
</svg>

<svg xmlns="http://www.w3.org/2000/svg" width="24" height="24" viewBox="0 0 24 24">
    <path fill="#3A3A47" fill-rule="evenodd" d="M18.799 19.608c2.067-2.71 3.205-4.095 3.205-7.582 0-3.486-1.137-4.924-3.202-7.632a1 1 0 1 0-1.59 1.213c1.8 2.36 2.792 3.368 2.792 6.419 0 3.052-.992 4.006-2.795 6.37a.998.998 0 0 0 1.59 1.212zm-7.22.268c.277-.176.418-.476.421-.901l.004-13.678c.017-.576-.124-.953-.422-1.13-.298-.177-.645-.207-1.04-.09L6 8H4c-1.33.007-1.996.674-1.996 2v1.356L2 14c0 1.325.667 1.996 2 2.013L6 16l4.537 3.934c.417.138.764.118 1.041-.058zm4.547-3.556c1.02-.895 1.878-2.532 1.878-4.292 0-1.76-.73-3.238-1.878-4.325-.345-.4-.96-.497-1.399-.162-.439.336-.546 1.095-.189 1.402 1.113.956 1.466 2.083 1.466 3.085 0 1.001-.319 2.001-1.468 3.079-.146.137-.205.394-.205.606 0 .3.136.599.393.795.44.335.816.325 1.402-.188z"/>
</svg>
